src/assets/images/realtime/realtimekit/web/components-gallery/rtk-plugins.svg

<svg width="400" height="300" viewBox="0 0 400 300" fill="none" xmlns="http://www.w3.org/2000/svg" xmlns:xlink="http://www.w3.org/1999/xlink">
<g clip-path="url(#clip0_9781_46226)">
<rect width="400" height="300" fill="white"/>
<g style="mix-blend-mode:darken">
<path d="M0 4.21053C0 1.88512 1.88512 0 4.21053 0H395.789C398.115 0 400 1.88512 400 4.21053V295.789C400 298.115 398.115 300 395.789 300H4.21054C1.88513 300 0 298.115 0 295.789V4.21053Z" fill="url(#pattern0_9781_46226)"/>
</g>
<g clip-path="url(#clip1_9781_46226)">
<rect x="40" y="43" width="320" height="1024" rx="8" fill="#080808"/>
<rect width="320" height="48" transform="translate(40 43)" fill="#080808"/>
<g clip-path="url(#clip2_9781_46226)">
<path d="M63.2501 61.7584C62.9251 61.4334 62.4001 61.4334 62.0751 61.7584L58.0001 65.8251L53.9251 61.7501C53.6001 61.4251 53.0751 61.4251 52.7501 61.7501C52.4251 62.0751 52.4251 62.6001 52.7501 62.9251L56.8251 67.0001L52.7501 71.0751C52.4251 71.4001 52.4251 71.9251 52.7501 72.2501C53.0751 72.5751 53.6001 72.5751 53.9251 72.2501L58.0001 68.1751L62.0751 72.2501C62.4001 72.5751 62.9251 72.5751 63.2501 72.2501C63.5751 71.9251 63.5751 71.4001 63.2501 71.0751L59.1751 67.0001L63.2501 62.9251C63.5668 62.6084 63.5668 62.0751 63.2501 61.7584Z" fill="#323232"/>
</g>
<path d="M174.151 73V61.3636H178.083C178.996 61.3636 179.742 61.5284 180.322 61.858C180.905 62.1837 181.337 62.625 181.617 63.1818C181.897 63.7386 182.038 64.3598 182.038 65.0455C182.038 65.7311 181.897 66.3542 181.617 66.9148C181.341 67.4754 180.913 67.9223 180.333 68.2557C179.754 68.5852 179.011 68.75 178.106 68.75H175.288V67.5H178.06C178.685 67.5 179.187 67.392 179.566 67.1761C179.945 66.9602 180.219 66.6686 180.39 66.3011C180.564 65.9299 180.651 65.5114 180.651 65.0455C180.651 64.5795 180.564 64.1629 180.39 63.7955C180.219 63.428 179.943 63.1402 179.56 62.9318C179.178 62.7197 178.67 62.6136 178.038 62.6136H175.56V73H174.151ZM185.467 61.3636V73H184.126V61.3636H185.467ZM193.423 69.4318V64.2727H194.763V73H193.423V71.5227H193.332C193.127 71.9659 192.809 72.3428 192.377 72.6534C191.945 72.9602 191.4 73.1136 190.741 73.1136C190.195 73.1136 189.71 72.9943 189.286 72.7557C188.862 72.5133 188.529 72.1496 188.286 71.6648C188.044 71.1761 187.923 70.5606 187.923 69.8182V64.2727H189.263V69.7273C189.263 70.3636 189.442 70.8712 189.798 71.25C190.157 71.6288 190.616 71.8182 191.173 71.8182C191.506 71.8182 191.845 71.733 192.19 71.5625C192.538 71.392 192.83 71.1307 193.065 70.7784C193.303 70.4261 193.423 69.9773 193.423 69.4318ZM200.742 76.4545C200.094 76.4545 199.538 76.3712 199.072 76.2045C198.606 76.0417 198.218 75.8258 197.907 75.5568C197.6 75.2917 197.356 75.0076 197.174 74.7045L198.242 73.9545C198.363 74.1136 198.517 74.2955 198.702 74.5C198.888 74.7083 199.142 74.8883 199.464 75.0398C199.79 75.1951 200.216 75.2727 200.742 75.2727C201.447 75.2727 202.028 75.1023 202.487 74.7614C202.945 74.4205 203.174 73.8864 203.174 73.1591V71.3864H203.06C202.962 71.5455 202.822 71.7424 202.64 71.9773C202.462 72.2083 202.204 72.4148 201.867 72.5966C201.534 72.7746 201.083 72.8636 200.515 72.8636C199.81 72.8636 199.178 72.697 198.617 72.3636C198.06 72.0303 197.619 71.5455 197.293 70.9091C196.971 70.2727 196.81 69.5 196.81 68.5909C196.81 67.697 196.968 66.9186 197.282 66.2557C197.596 65.589 198.034 65.0739 198.594 64.7102C199.155 64.3428 199.803 64.1591 200.538 64.1591C201.106 64.1591 201.557 64.2538 201.89 64.4432C202.227 64.6288 202.485 64.8409 202.663 65.0795C202.844 65.3144 202.985 65.5076 203.083 65.6591H203.219V64.2727H204.515V73.25C204.515 74 204.344 74.6098 204.004 75.0795C203.666 75.553 203.212 75.8996 202.64 76.1193C202.072 76.3428 201.439 76.4545 200.742 76.4545ZM200.697 71.6591C201.235 71.6591 201.689 71.536 202.06 71.2898C202.432 71.0436 202.714 70.6894 202.907 70.2273C203.1 69.7652 203.197 69.2121 203.197 68.5682C203.197 67.9394 203.102 67.3845 202.913 66.9034C202.723 66.4223 202.443 66.0455 202.072 65.7727C201.701 65.5 201.242 65.3636 200.697 65.3636C200.129 65.3636 199.655 65.5076 199.276 65.7955C198.901 66.0833 198.619 66.4697 198.43 66.9545C198.244 67.4394 198.151 67.9773 198.151 68.5682C198.151 69.1742 198.246 69.7102 198.435 70.1761C198.629 70.6383 198.913 71.0019 199.288 71.267C199.666 71.5284 200.136 71.6591 200.697 71.6591ZM206.969 73V64.2727H208.31V73H206.969ZM207.651 62.8182C207.39 62.8182 207.165 62.7292 206.975 62.5511C206.79 62.3731 206.697 62.1591 206.697 61.9091C206.697 61.6591 206.79 61.4451 206.975 61.267C207.165 61.089 207.39 61 207.651 61C207.913 61 208.136 61.089 208.322 61.267C208.511 61.4451 208.606 61.6591 208.606 61.9091C208.606 62.1591 208.511 62.3731 208.322 62.5511C208.136 62.7292 207.913 62.8182 207.651 62.8182ZM212.107 67.75V73H210.766V64.2727H212.062V65.6364H212.175C212.38 65.1932 212.691 64.8371 213.107 64.5682C213.524 64.2955 214.062 64.1591 214.721 64.1591C215.312 64.1591 215.829 64.2803 216.272 64.5227C216.715 64.7614 217.06 65.125 217.306 65.6136C217.552 66.0985 217.675 66.7121 217.675 67.4545V73H216.335V67.5455C216.335 66.8598 216.156 66.3258 215.8 65.9432C215.444 65.5568 214.956 65.3636 214.335 65.3636C213.906 65.3636 213.524 65.4564 213.187 65.642C212.853 65.8277 212.59 66.0985 212.397 66.4545C212.204 66.8106 212.107 67.2424 212.107 67.75ZM226.308 66.2273L225.103 66.5682C225.027 66.3674 224.915 66.1723 224.768 65.983C224.624 65.7898 224.427 65.6307 224.177 65.5057C223.927 65.3807 223.607 65.3182 223.217 65.3182C222.683 65.3182 222.237 65.4413 221.881 65.6875C221.529 65.9299 221.353 66.2386 221.353 66.6136C221.353 66.947 221.474 67.2102 221.717 67.4034C221.959 67.5966 222.338 67.7576 222.853 67.8864L224.148 68.2045C224.929 68.3939 225.51 68.6837 225.893 69.0739C226.275 69.4602 226.467 69.9583 226.467 70.5682C226.467 71.0682 226.323 71.5152 226.035 71.9091C225.751 72.303 225.353 72.6136 224.842 72.8409C224.33 73.0682 223.736 73.1818 223.058 73.1818C222.167 73.1818 221.431 72.9886 220.847 72.6023C220.264 72.2159 219.895 71.6515 219.739 70.9091L221.012 70.5909C221.133 71.0606 221.362 71.4129 221.7 71.6477C222.04 71.8826 222.486 72 223.035 72C223.66 72 224.156 71.8674 224.523 71.6023C224.895 71.3333 225.08 71.0114 225.08 70.6364C225.08 70.3333 224.974 70.0795 224.762 69.875C224.55 69.6667 224.224 69.5114 223.785 69.4091L222.33 69.0682C221.531 68.8788 220.944 68.5852 220.569 68.1875C220.198 67.786 220.012 67.2841 220.012 66.6818C220.012 66.1894 220.15 65.7538 220.427 65.375C220.707 64.9962 221.088 64.6989 221.569 64.483C222.054 64.267 222.603 64.1591 223.217 64.1591C224.08 64.1591 224.758 64.3485 225.251 64.7273C225.747 65.1061 226.099 65.6061 226.308 66.2273Z" fill="white" fill-opacity="0.88"/>
<g clip-path="url(#clip3_9781_46226)">
<path d="M347.25 61.7584C346.925 61.4334 346.4 61.4334 346.075 61.7584L342 65.8251L337.925 61.7501C337.6 61.4251 337.075 61.4251 336.75 61.7501C336.425 62.0751 336.425 62.6001 336.75 62.9251L340.825 67.0001L336.75 71.0751C336.425 71.4001 336.425 71.9251 336.75 72.2501C337.075 72.5751 337.6 72.5751 337.925 72.2501L342 68.1751L346.075 72.2501C346.4 72.5751 346.925 72.5751 347.25 72.2501C347.575 71.9251 347.575 71.4001 347.25 71.0751L343.175 67.0001L347.25 62.9251C347.567 62.6084 347.567 62.0751 347.25 61.7584Z" fill="#323232"/>
</g>
<line x1="40" y1="1067" x2="40" y2="42.9995" stroke="#393939"/>
<rect x="53" y="107" width="32" height="32" rx="4" fill="white"/>
<rect x="98" y="116" width="96" height="14" rx="7" fill="#474747"/>
<path d="M315 110.556C315 108.592 316.592 107 318.556 107H343.444C345.408 107 347 108.592 347 110.556V135.444C347 137.408 345.408 139 343.444 139H318.556C316.592 139 315 137.408 315 135.444V110.556Z" fill="#2160FD"/>
<path d="M331.942 131.492L330.583 128.3C331.892 127.817 333.117 127.167 334.25 126.408L331.942 131.492ZM325.7 123.417L322.508 122.058L327.592 119.75C326.833 120.883 326.183 122.108 325.7 123.417ZM337.017 116.333C337.25 116.333 337.458 116.333 337.633 116.375C337.775 117.533 337.617 119.917 334.883 122.65C333.467 124.075 331.775 125.167 329.875 125.892L328.083 124.142C328.85 122.217 329.942 120.525 331.35 119.117C333.65 116.817 335.7 116.333 337.017 116.333ZM337.017 114.667C335.367 114.667 332.867 115.242 330.167 117.942C328.342 119.767 327.25 121.775 326.542 123.533C326.308 124.158 326.467 124.842 326.925 125.308L328.7 127.075C329.017 127.392 329.442 127.583 329.883 127.583C330.075 127.583 330.275 127.533 330.467 127.458C332.25 126.775 334.233 125.658 336.058 123.833C340.775 119.117 339.008 114.992 339.008 114.992C339.008 114.992 338.25 114.667 337.017 114.667ZM333.117 120.883C332.467 120.233 332.467 119.175 333.117 118.525C333.767 117.875 334.825 117.875 335.475 118.525C336.117 119.175 336.125 120.233 335.475 120.883C334.825 121.533 333.767 121.533 333.117 120.883ZM328.4 126.775L327.225 125.6L328.4 126.775ZM326.2 131.333L329.233 128.3C328.95 128.225 328.675 128.1 328.425 127.925L325.025 131.333H326.2ZM322.667 131.333H323.842L327.817 127.367L326.633 126.192L322.667 130.158V131.333ZM322.667 128.975L326.075 125.575C325.9 125.325 325.775 125.058 325.7 124.767L322.667 127.8V128.975Z" fill="#F5F5F7"/>
<rect x="53" y="155" width="32" height="32" rx="4" fill="#ECA05D"/>
<rect x="98" y="164" width="54" height="14" rx="7" fill="#474747"/>
<path d="M315 158.556C315 156.592 316.592 155 318.556 155H343.444C345.408 155 347 156.592 347 158.556V183.444C347 185.408 345.408 187 343.444 187H318.556C316.592 187 315 185.408 315 183.444V158.556Z" fill="#2160FD"/>
<path d="M331.942 179.492L330.583 176.3C331.892 175.817 333.117 175.167 334.25 174.408L331.942 179.492ZM325.7 171.417L322.508 170.058L327.592 167.75C326.833 168.883 326.183 170.108 325.7 171.417ZM337.017 164.333C337.25 164.333 337.458 164.333 337.633 164.375C337.775 165.533 337.617 167.917 334.883 170.65C333.467 172.075 331.775 173.167 329.875 173.892L328.083 172.142C328.85 170.217 329.942 168.525 331.35 167.117C333.65 164.817 335.7 164.333 337.017 164.333ZM337.017 162.667C335.367 162.667 332.867 163.242 330.167 165.942C328.342 167.767 327.25 169.775 326.542 171.533C326.308 172.158 326.467 172.842 326.925 173.308L328.7 175.075C329.017 175.392 329.442 175.583 329.883 175.583C330.075 175.583 330.275 175.533 330.467 175.458C332.25 174.775 334.233 173.658 336.058 171.833C340.775 167.117 339.008 162.992 339.008 162.992C339.008 162.992 338.25 162.667 337.017 162.667ZM333.117 168.883C332.467 168.233 332.467 167.175 333.117 166.525C333.767 165.875 334.825 165.875 335.475 166.525C336.117 167.175 336.125 168.233 335.475 168.883C334.825 169.533 333.767 169.533 333.117 168.883ZM328.4 174.775L327.225 173.6L328.4 174.775ZM326.2 179.333L329.233 176.3C328.95 176.225 328.675 176.1 328.425 175.925L325.025 179.333H326.2ZM322.667 179.333H323.842L327.817 175.367L326.633 174.192L322.667 178.158V179.333ZM322.667 176.975L326.075 173.575C325.9 173.325 325.775 173.058 325.7 172.767L322.667 175.8V176.975Z" fill="#F5F5F7"/>
<rect x="53" y="203" width="32" height="32" rx="4" fill="#FF5A65"/>
<rect x="98" y="212" width="148" height="14" rx="7" fill="#474747"/>
<path d="M315 206.556C315 204.592 316.592 203 318.556 203H343.444C345.408 203 347 204.592 347 206.556V231.444C347 233.408 345.408 235 343.444 235H318.556C316.592 235 315 233.408 315 231.444V206.556Z" fill="#2160FD"/>
<path d="M331.942 227.492L330.583 224.3C331.892 223.817 333.117 223.167 334.25 222.408L331.942 227.492ZM325.7 219.417L322.508 218.058L327.592 215.75C326.833 216.883 326.183 218.108 325.7 219.417ZM337.017 212.333C337.25 212.333 337.458 212.333 337.633 212.375C337.775 213.533 337.617 215.917 334.883 218.65C333.467 220.075 331.775 221.167 329.875 221.892L328.083 220.142C328.85 218.217 329.942 216.525 331.35 215.117C333.65 212.817 335.7 212.333 337.017 212.333ZM337.017 210.667C335.367 210.667 332.867 211.242 330.167 213.942C328.342 215.767 327.25 217.775 326.542 219.533C326.308 220.158 326.467 220.842 326.925 221.308L328.7 223.075C329.017 223.392 329.442 223.583 329.883 223.583C330.075 223.583 330.275 223.533 330.467 223.458C332.25 222.775 334.233 221.658 336.058 219.833C340.775 215.117 339.008 210.992 339.008 210.992C339.008 210.992 338.25 210.667 337.017 210.667ZM333.117 216.883C332.467 216.233 332.467 215.175 333.117 214.525C333.767 213.875 334.825 213.875 335.475 214.525C336.117 215.175 336.125 216.233 335.475 216.883C334.825 217.533 333.767 217.533 333.117 216.883ZM328.4 222.775L327.225 221.6L328.4 222.775ZM326.2 227.333L329.233 224.3C328.95 224.225 328.675 224.1 328.425 223.925L325.025 227.333H326.2ZM322.667 227.333H323.842L327.817 223.367L326.633 222.192L322.667 226.158V227.333ZM322.667 224.975L326.075 221.575C325.9 221.325 325.775 221.058 325.7 220.767L322.667 223.8V224.975Z" fill="#F5F5F7"/>
<rect x="53" y="251" width="32" height="32" rx="4" fill="#6572D2"/>
<rect x="98" y="260" width="83" height="14" rx="7" fill="#474747"/>
<path d="M315 254.556C315 252.592 316.592 251 318.556 251H343.444C345.408 251 347 252.592 347 254.556V279.444C347 281.408 345.408 283 343.444 283H318.556C316.592 283 315 281.408 315 279.444V254.556Z" fill="#2160FD"/>
<path d="M331.942 275.492L330.583 272.3C331.892 271.817 333.117 271.167 334.25 270.408L331.942 275.492ZM325.7 267.417L322.508 266.058L327.592 263.75C326.833 264.883 326.183 266.108 325.7 267.417ZM337.017 260.333C337.25 260.333 337.458 260.333 337.633 260.375C337.775 261.533 337.617 263.917 334.883 266.65C333.467 268.075 331.775 269.167 329.875 269.892L328.083 268.142C328.85 266.217 329.942 264.525 331.35 263.117C333.65 260.817 335.7 260.333 337.017 260.333ZM337.017 258.667C335.367 258.667 332.867 259.242 330.167 261.942C328.342 263.767 327.25 265.775 326.542 267.533C326.308 268.158 326.467 268.842 326.925 269.308L328.7 271.075C329.017 271.392 329.442 271.583 329.883 271.583C330.075 271.583 330.275 271.533 330.467 271.458C332.25 270.775 334.233 269.658 336.058 267.833C340.775 263.117 339.008 258.992 339.008 258.992C339.008 258.992 338.25 258.667 337.017 258.667ZM333.117 264.883C332.467 264.233 332.467 263.175 333.117 262.525C333.767 261.875 334.825 261.875 335.475 262.525C336.117 263.175 336.125 264.233 335.475 264.883C334.825 265.533 333.767 265.533 333.117 264.883ZM328.4 270.775L327.225 269.6L328.4 270.775ZM326.2 275.333L329.233 272.3C328.95 272.225 328.675 272.1 328.425 271.925L325.025 275.333H326.2ZM322.667 275.333H323.842L327.817 271.367L326.633 270.192L322.667 274.158V275.333ZM322.667 272.975L326.075 269.575C325.9 269.325 325.775 269.058 325.7 268.767L322.667 271.8V272.975Z" fill="#F5F5F7"/>
</g>
</g>
<defs>
<pattern id="pattern0_9781_46226" patternContentUnits="objectBoundingBox" width="0.0368421" height="0.0491228">
<use xlink:href="#image0_9781_46226" transform="scale(0.000657895 0.000877193)"/>
</pattern>
<clipPath id="clip0_9781_46226">
<rect width="400" height="300" fill="white"/>
</clipPath>
<clipPath id="clip1_9781_46226">
<rect x="40" y="43" width="320" height="1024" rx="8" fill="white"/>
</clipPath>
<clipPath id="clip2_9781_46226">
<rect width="20" height="20" fill="white" transform="translate(48 57)"/>
</clipPath>
<clipPath id="clip3_9781_46226">
<rect width="20" height="20" fill="white" transform="translate(332 57)"/>
</clipPath>
<image id="image0_9781_46226" width="56" height="56" preserveAspectRatio="none" xlink:href="data:image/png;base64,iVBORw0KGgoAAAANSUhEUgAAADgAAAA4CAYAAACohjseAAAACXBIWXMAACxLAAAsSwGlPZapAAAAAXNSR0IArs4c6QAAAARnQU1BAACxjwv8YQUAAADdSURBVHgB7dmxDoMgFIXhCzEmbsbF9388F8PGAKHt6dSksvXaHHK+EQbzB0Sj4fFiA4s2OAWyUyA7BbJTIDsFslMgOwWyUyA7BbJTIDsFspvsBrVWO8/TSinWWrNlWWxdV5sm/8sH7w+/iDuO4x32KcZo+767R7pv0ZTSVxxgDKvqzT0w59ydw5b15h4YQujOXa3sr7kHzvPcncNh4809cNu2y1XEGE5Sb+GO32c4SXHY4H5EGFYV4UM8Jv5Nr2rsFMhOgewUyE6B7BTIToHsFMhOgewUyE6B7IYPfALcB0NZ5j6jXgAAAABJRU5ErkJggg=="/>
</defs>
</svg>

<svg xmlns="http://www.w3.org/2000/svg" xmlns:xlink="http://www.w3.org/1999/xlink" width="400" height="300" fill="none" viewBox="0 0 400 300"><g clip-path="url(#clip0_9781_46226)"><path fill="#fff" d="M0 0h400v300H0z"/><path fill="url(#pattern0_9781_46226)" d="M0 4.21A4.21 4.21 0 0 1 4.21 0h391.58A4.21 4.21 0 0 1 400 4.21v291.58a4.21 4.21 0 0 1-4.211 4.211H4.211A4.21 4.21 0 0 1 0 295.789z" style="mix-blend-mode:darken"/><g clip-path="url(#clip1_9781_46226)"><rect width="320" height="1024" x="40" y="43" fill="#080808" rx="8"/><path fill="#080808" d="M40 43h320v48H40z"/><g clip-path="url(#clip2_9781_46226)"><path fill="#323232" d="M63.25 61.758a.83.83 0 0 0-1.175 0L58 65.825l-4.075-4.075a.83.83 0 1 0-1.175 1.175L56.825 67l-4.075 4.075a.83.83 0 1 0 1.175 1.175L58 68.175l4.075 4.075a.83.83 0 1 0 1.175-1.175L59.175 67l4.075-4.075a.835.835 0 0 0 0-1.167"/></g><path fill="#fff" fill-opacity=".88" d="M174.151 73V61.364h3.932q1.37 0 2.239.494.875.489 1.295 1.324a4.1 4.1 0 0 1 .421 1.864q0 1.028-.421 1.869-.414.84-1.284 1.34-.869.495-2.227.495h-2.818V67.5h2.772q.938 0 1.506-.324t.824-.875q.261-.557.261-1.255 0-.7-.261-1.25a1.87 1.87 0 0 0-.83-.864q-.574-.318-1.522-.318h-2.478V73zm11.316-11.636V73h-1.341V61.364zm7.956 8.068v-5.16h1.34V73h-1.34v-1.477h-.091q-.307.665-.955 1.13-.648.46-1.636.46-.819 0-1.455-.357-.636-.364-1-1.091-.363-.733-.363-1.847v-5.545h1.34v5.454q0 .955.535 1.523.539.568 1.375.568.5 0 1.017-.255.522-.256.875-.785.358-.528.358-1.346m7.319 7.022q-.972 0-1.67-.25a3.6 3.6 0 0 1-1.165-.647 3.5 3.5 0 0 1-.733-.853l1.068-.75q.182.24.46.546.279.312.762.54.489.233 1.278.233 1.057 0 1.745-.512.687-.51.687-1.602v-1.773h-.114q-.147.24-.42.591-.267.347-.773.62-.5.267-1.352.267-1.057 0-1.898-.5-.835-.501-1.324-1.455-.483-.954-.483-2.318 0-1.34.472-2.335.471-1 1.312-1.546.841-.55 1.944-.55.852 0 1.352.283.506.279.773.636.272.353.42.58h.136v-1.386h1.296v8.977q0 1.125-.511 1.83-.506.71-1.364 1.04-.852.334-1.898.334m-.045-4.795q.807 0 1.363-.37.558-.368.847-1.062.29-.693.29-1.659 0-.943-.284-1.665-.285-.721-.841-1.13-.557-.41-1.375-.41-.852 0-1.421.433a2.6 2.6 0 0 0-.846 1.158 4.5 4.5 0 0 0-.279 1.614q0 .909.284 1.608.29.693.853 1.091.567.392 1.409.392M206.969 73v-8.727h1.341V73zm.682-10.182a.95.95 0 0 1-.676-.267.86.86 0 0 1-.278-.642.86.86 0 0 1 .278-.642.96.96 0 0 1 .676-.267q.393 0 .671.267a.85.85 0 0 1 .284.642q0 .375-.284.642a.93.93 0 0 1-.671.267m4.456 4.932V73h-1.341v-8.727h1.296v1.363h.113a2.5 2.5 0 0 1 .932-1.068q.626-.409 1.614-.409.887 0 1.551.364a2.45 2.45 0 0 1 1.034 1.09q.369.73.369 1.841V73h-1.34v-5.454q0-1.029-.535-1.603-.534-.58-1.465-.58-.643 0-1.148.279a2 2 0 0 0-.79.813q-.29.534-.29 1.295m14.201-1.523-1.205.341a2.3 2.3 0 0 0-.335-.585 1.6 1.6 0 0 0-.591-.477q-.375-.188-.96-.188-.801 0-1.336.37-.528.362-.528.926 0 .5.364.79.363.29 1.136.482l1.295.319q1.171.284 1.745.869.574.579.574 1.494 0 .75-.432 1.341-.426.591-1.193.932-.767.34-1.784.34-1.336 0-2.211-.579t-1.108-1.693l1.273-.318q.181.705.688 1.057.51.352 1.335.352.938 0 1.488-.398.558-.403.557-.966 0-.454-.318-.761-.318-.312-.977-.466l-1.455-.34q-1.198-.285-1.761-.882-.557-.602-.557-1.505 0-.739.415-1.307.42-.568 1.142-.892.727-.324 1.648-.324 1.294 0 2.034.568.744.57 1.057 1.5"/><g clip-path="url(#clip3_9781_46226)"><path fill="#323232" d="M347.25 61.758a.83.83 0 0 0-1.175 0L342 65.825l-4.075-4.075a.83.83 0 1 0-1.175 1.175L340.825 67l-4.075 4.075a.83.83 0 1 0 1.175 1.175L342 68.175l4.075 4.075a.83.83 0 1 0 1.175-1.175L343.175 67l4.075-4.075a.835.835 0 0 0 0-1.167"/></g><path stroke="#393939" d="M40 1067V42.999"/><rect width="32" height="32" x="53" y="107" fill="#fff" rx="4"/><rect width="96" height="14" x="98" y="116" fill="#474747" rx="7"/><path fill="#2160fd" d="M315 110.556a3.556 3.556 0 0 1 3.556-3.556h24.888a3.556 3.556 0 0 1 3.556 3.556v24.888a3.556 3.556 0 0 1-3.556 3.556h-24.888a3.556 3.556 0 0 1-3.556-3.556z"/><path fill="#f5f5f7" d="m331.942 131.492-1.359-3.192a17.5 17.5 0 0 0 3.667-1.892zm-6.242-8.075-3.192-1.359 5.084-2.308a17.5 17.5 0 0 0-1.892 3.667m11.317-7.084c.233 0 .441 0 .616.042.142 1.158-.016 3.542-2.75 6.275a14.1 14.1 0 0 1-5.008 3.242l-1.792-1.75c.767-1.925 1.859-3.617 3.267-5.025 2.3-2.3 4.35-2.784 5.667-2.784m0-1.666c-1.65 0-4.15.575-6.85 3.275-1.825 1.825-2.917 3.833-3.625 5.591a1.68 1.68 0 0 0 .383 1.775l1.775 1.767c.317.317.742.508 1.183.508.192 0 .392-.05.584-.125a15.9 15.9 0 0 0 5.591-3.625c4.717-4.716 2.95-8.841 2.95-8.841s-.758-.325-1.991-.325m-3.9 6.216a1.67 1.67 0 0 1 0-2.358 1.67 1.67 0 0 1 2.358 0c.642.65.65 1.708 0 2.358a1.67 1.67 0 0 1-2.358 0m-4.717 5.892-1.175-1.175zm-2.2 4.558 3.033-3.033a2.6 2.6 0 0 1-.808-.375l-3.4 3.408zm-3.533 0h1.175l3.975-3.966-1.184-1.175-3.966 3.966zm0-2.358 3.408-3.4a2.5 2.5 0 0 1-.375-.808l-3.033 3.033z"/><rect width="32" height="32" x="53" y="155" fill="#eca05d" rx="4"/><rect width="54" height="14" x="98" y="164" fill="#474747" rx="7"/><path fill="#2160fd" d="M315 158.556a3.556 3.556 0 0 1 3.556-3.556h24.888a3.556 3.556 0 0 1 3.556 3.556v24.888a3.556 3.556 0 0 1-3.556 3.556h-24.888a3.556 3.556 0 0 1-3.556-3.556z"/><path fill="#f5f5f7" d="m331.942 179.492-1.359-3.192a17.5 17.5 0 0 0 3.667-1.892zm-6.242-8.075-3.192-1.359 5.084-2.308a17.5 17.5 0 0 0-1.892 3.667m11.317-7.084c.233 0 .441 0 .616.042.142 1.158-.016 3.542-2.75 6.275a14.1 14.1 0 0 1-5.008 3.242l-1.792-1.75c.767-1.925 1.859-3.617 3.267-5.025 2.3-2.3 4.35-2.784 5.667-2.784m0-1.666c-1.65 0-4.15.575-6.85 3.275-1.825 1.825-2.917 3.833-3.625 5.591a1.68 1.68 0 0 0 .383 1.775l1.775 1.767c.317.317.742.508 1.183.508.192 0 .392-.05.584-.125a15.9 15.9 0 0 0 5.591-3.625c4.717-4.716 2.95-8.841 2.95-8.841s-.758-.325-1.991-.325m-3.9 6.216a1.67 1.67 0 0 1 0-2.358 1.67 1.67 0 0 1 2.358 0c.642.65.65 1.708 0 2.358a1.67 1.67 0 0 1-2.358 0m-4.717 5.892-1.175-1.175zm-2.2 4.558 3.033-3.033a2.6 2.6 0 0 1-.808-.375l-3.4 3.408zm-3.533 0h1.175l3.975-3.966-1.184-1.175-3.966 3.966zm0-2.358 3.408-3.4a2.5 2.5 0 0 1-.375-.808l-3.033 3.033z"/><rect width="32" height="32" x="53" y="203" fill="#ff5a65" rx="4"/><rect width="148" height="14" x="98" y="212" fill="#474747" rx="7"/><path fill="#2160fd" d="M315 206.556a3.556 3.556 0 0 1 3.556-3.556h24.888a3.556 3.556 0 0 1 3.556 3.556v24.888a3.556 3.556 0 0 1-3.556 3.556h-24.888a3.556 3.556 0 0 1-3.556-3.556z"/><path fill="#f5f5f7" d="m331.942 227.492-1.359-3.192a17.5 17.5 0 0 0 3.667-1.892zm-6.242-8.075-3.192-1.359 5.084-2.308a17.5 17.5 0 0 0-1.892 3.667m11.317-7.084c.233 0 .441 0 .616.042.142 1.158-.016 3.542-2.75 6.275a14.1 14.1 0 0 1-5.008 3.242l-1.792-1.75c.767-1.925 1.859-3.617 3.267-5.025 2.3-2.3 4.35-2.784 5.667-2.784m0-1.666c-1.65 0-4.15.575-6.85 3.275-1.825 1.825-2.917 3.833-3.625 5.591a1.68 1.68 0 0 0 .383 1.775l1.775 1.767c.317.317.742.508 1.183.508.192 0 .392-.05.584-.125a15.9 15.9 0 0 0 5.591-3.625c4.717-4.716 2.95-8.841 2.95-8.841s-.758-.325-1.991-.325m-3.9 6.216a1.67 1.67 0 0 1 0-2.358 1.67 1.67 0 0 1 2.358 0c.642.65.65 1.708 0 2.358a1.67 1.67 0 0 1-2.358 0m-4.717 5.892-1.175-1.175zm-2.2 4.558 3.033-3.033a2.6 2.6 0 0 1-.808-.375l-3.4 3.408zm-3.533 0h1.175l3.975-3.966-1.184-1.175-3.966 3.966zm0-2.358 3.408-3.4a2.5 2.5 0 0 1-.375-.808l-3.033 3.033z"/><rect width="32" height="32" x="53" y="251" fill="#6572d2" rx="4"/><rect width="83" height="14" x="98" y="260" fill="#474747" rx="7"/><path fill="#2160fd" d="M315 254.556a3.556 3.556 0 0 1 3.556-3.556h24.888a3.556 3.556 0 0 1 3.556 3.556v24.888a3.556 3.556 0 0 1-3.556 3.556h-24.888a3.556 3.556 0 0 1-3.556-3.556z"/><path fill="#f5f5f7" d="m331.942 275.492-1.359-3.192a17.5 17.5 0 0 0 3.667-1.892zm-6.242-8.075-3.192-1.359 5.084-2.308a17.5 17.5 0 0 0-1.892 3.667m11.317-7.084c.233 0 .441 0 .616.042.142 1.158-.016 3.542-2.75 6.275a14.1 14.1 0 0 1-5.008 3.242l-1.792-1.75c.767-1.925 1.859-3.617 3.267-5.025 2.3-2.3 4.35-2.784 5.667-2.784m0-1.666c-1.65 0-4.15.575-6.85 3.275-1.825 1.825-2.917 3.833-3.625 5.591a1.68 1.68 0 0 0 .383 1.775l1.775 1.767c.317.317.742.508 1.183.508.192 0 .392-.05.584-.125a15.9 15.9 0 0 0 5.591-3.625c4.717-4.716 2.95-8.841 2.95-8.841s-.758-.325-1.991-.325m-3.9 6.216a1.67 1.67 0 0 1 0-2.358 1.67 1.67 0 0 1 2.358 0c.642.65.65 1.708 0 2.358a1.67 1.67 0 0 1-2.358 0m-4.717 5.892-1.175-1.175zm-2.2 4.558 3.033-3.033a2.6 2.6 0 0 1-.808-.375l-3.4 3.408zm-3.533 0h1.175l3.975-3.966-1.184-1.175-3.966 3.966zm0-2.358 3.408-3.4a2.5 2.5 0 0 1-.375-.808l-3.033 3.033z"/></g></g><defs><clipPath id="clip0_9781_46226"><path fill="#fff" d="M0 0h400v300H0z"/></clipPath><clipPath id="clip1_9781_46226"><rect width="320" height="1024" x="40" y="43" fill="#fff" rx="8"/></clipPath><clipPath id="clip2_9781_46226"><path fill="#fff" d="M48 57h20v20H48z"/></clipPath><clipPath id="clip3_9781_46226"><path fill="#fff" d="M332 57h20v20h-20z"/></clipPath><pattern id="pattern0_9781_46226" width=".037" height=".049" patternContentUnits="objectBoundingBox"><use xlink:href="#image0_9781_46226" transform="scale(.00066 .00088)"/></pattern><image xlink:href="data:image/png;base64,iVBORw0KGgoAAAANSUhEUgAAADgAAAA4CAYAAACohjseAAAACXBIWXMAACxLAAAsSwGlPZapAAAAAXNSR0IArs4c6QAAAARnQU1BAACxjwv8YQUAAADdSURBVHgB7dmxDoMgFIXhCzEmbsbF9388F8PGAKHt6dSksvXaHHK+EQbzB0Sj4fFiA4s2OAWyUyA7BbJTIDsFslMgOwWyUyA7BbJTIDsFspvsBrVWO8/TSinWWrNlWWxdV5sm/8sH7w+/iDuO4x32KcZo+767R7pv0ZTSVxxgDKvqzT0w59ydw5b15h4YQujOXa3sr7kHzvPcncNh4809cNu2y1XEGE5Sb+GO32c4SXHY4H5EGFYV4UM8Jv5Nr2rsFMhOgewUyE6B7BTIToHsFMhOgewUyE6B7IYPfALcB0NZ5j6jXgAAAABJRU5ErkJggg==" id="image0_9781_46226" width="56" height="56" preserveAspectRatio="none"/></defs></svg>
